icons/thumbsup-16.svg

<svg width="16" height="16" viewBox="0 0 16 16" xmlns="http://www.w3.org/2000/svg">
  <path fill-rule="evenodd" clip-rule="evenodd" d="M8.83376 0.0660894C7.49433 -0.0865549 6.49998 1.04788 6.49997 2.24905L6.49997 2.74964C6.49997 4.07792 5.85325 4.87266 5.18247 5.36285C4.85424 5.60271 4.52215 5.76632 4.26392 5.87138C3.96086 5.35017 3.39635 4.99976 2.75 4.99976H1.75C0.783502 4.99976 0 5.78326 0 6.74976V14.2498C0 15.2163 0.783501 15.9998 1.75 15.9998H2.75C3.5247 15.9998 4.18183 15.4964 4.41213 14.7988C4.93662 14.8737 5.47944 15.0275 6.13735 15.2138L6.13754 15.2139C6.28911 15.2568 6.44678 15.3015 6.61175 15.3473C7.76571 15.6678 9.15259 15.9996 11 15.9996C12.7057 15.9996 13.9696 15.8473 14.7215 14.8604C15.0746 14.3971 15.2585 13.8184 15.3903 13.1883C15.5076 12.6274 15.5981 11.9446 15.7028 11.1548L15.7028 11.1548L15.7434 10.8488C15.9925 8.98041 16.0084 7.53084 15.5548 6.53301C15.3108 5.99639 14.9328 5.5904 14.4183 5.33287C13.924 5.08545 13.3531 4.99964 12.75 4.99964H11.3277L11.3427 4.8873L11.3427 4.88729C11.4124 4.36906 11.5 3.71789 11.5 3.24964C11.5 2.3281 11.3487 1.53102 10.8444 0.950213C10.3331 0.36121 9.5972 0.153092 8.83376 0.0660894ZM4.5 13.2985C5.20532 13.387 5.89055 13.5826 6.5721 13.7772L6.57211 13.7772C6.71926 13.8192 6.86624 13.8612 7.01322 13.902C8.10925 14.2065 9.34735 14.4996 11 14.4996C12.7942 14.4996 13.2803 14.277 13.5284 13.9514C13.6753 13.7585 13.8039 13.4465 13.9221 12.8813C14.0272 12.3789 14.1096 11.7572 14.2166 10.9513L14.2565 10.6505C14.5075 8.76887 14.446 7.71845 14.1893 7.15378C14.078 6.90914 13.9348 6.76826 13.7469 6.67423C13.5388 6.57008 13.2263 6.49964 12.75 6.49964H10.9996C10.3144 6.49964 9.70502 5.92267 9.79443 5.16372C9.81697 4.97238 9.84349 4.77474 9.86985 4.57828C9.9354 4.08983 9.99997 3.60865 9.99997 3.24964C9.99997 2.44105 9.85561 2.09928 9.71177 1.9336C9.57504 1.77611 9.31035 1.63011 8.66392 1.55644C8.35722 1.52149 7.99997 1.79346 7.99997 2.24906L7.99997 2.74964C7.99997 4.67136 7.02171 5.87662 6.0675 6.57393C5.59744 6.91744 5.1316 7.14082 4.78481 7.27864C4.67882 7.32077 4.58288 7.35533 4.5 7.38318V13.2985ZM2.75 6.49976C2.88807 6.49976 3 6.61168 3 6.74976V13.9996V14.2498C3 14.3878 2.88807 14.4998 2.75 14.4998H1.75C1.61193 14.4998 1.5 14.3878 1.5 14.2498V6.74976C1.5 6.61168 1.61193 6.49976 1.75 6.49976H2.75Z"/>
</svg>

<svg xmlns="http://www.w3.org/2000/svg" width="16" height="16" viewBox="0 0 16 16"><path fill-rule="evenodd" d="M8.834.066C7.494-.087 6.5 1.048 6.5 2.25v.5c0 1.329-.647 2.124-1.318 2.614-.328.24-.66.403-.918.508A1.75 1.75 0 002.75 5h-1A1.75 1.75 0 000 6.75v7.5C0 15.216.784 16 1.75 16h1a1.75 1.75 0 001.662-1.201c.525.075 1.067.229 1.725.415.152.043.31.088.475.133 1.154.32 2.54.653 4.388.653 1.706 0 2.97-.153 3.722-1.14.353-.463.537-1.042.668-1.672.118-.56.208-1.243.313-2.033l.04-.306c.25-1.869.265-3.318-.188-4.316a2.418 2.418 0 00-1.137-1.2C13.924 5.085 13.353 5 12.75 5h-1.422l.015-.113c.07-.518.157-1.17.157-1.637 0-.922-.151-1.719-.656-2.3-.51-.589-1.247-.797-2.01-.884zM4.5 13.3c.705.088 1.39.284 2.072.478l.441.125c1.096.305 2.334.598 3.987.598 1.794 0 2.28-.223 2.528-.549.147-.193.276-.505.394-1.07.105-.502.188-1.124.295-1.93l.04-.3c.25-1.882.189-2.933-.068-3.497a.922.922 0 00-.442-.48c-.208-.104-.52-.174-.997-.174H11c-.686 0-1.295-.577-1.206-1.336.023-.192.05-.39.076-.586.065-.488.13-.97.13-1.328 0-.809-.144-1.15-.288-1.316-.137-.158-.402-.304-1.048-.378C8.357 1.521 8 1.793 8 2.25v.5c0 1.922-.978 3.128-1.933 3.825a5.861 5.861 0 01-1.567.81V13.3zM2.75 6.5a.25.25 0 01.25.25v7.5a.25.25 0 01-.25.25h-1a.25.25 0 01-.25-.25v-7.5a.25.25 0 01.25-.25h1z"/></svg>
